;FLAVOR:Marlin
;TIME:1114
;Filament used: 0.516326m
;Layer height: 0.2
;MINX:99.045
;MINY:99.042
;MINZ:0.2
;MAXX:135.964
;MAXY:135.956
;MAXZ:16
;TARGET_MACHINE.NAME:Creality Ender-3
;Generated with Cura_SteamEngine 5.6.0
M140 S50
M105
M190 S50
M104 S200
M105
M109 S200
M82 ;absolute extrusion mode
; Ender 3 Custom Start G-code
G92 E0 ; Reset Extruder
G28 ; Home all axes
G1 Z2.0 F3000 ; Move Z Axis up little to prevent scratching of Heat Bed
G1 X0.1 Y20 Z0.3 F5000.0 ; Move to start position
G1 X0.1 Y200.0 Z0.3 F1500.0 E15 ; Draw the first line
G1 X0.4 Y200.0 Z0.3 F5000.0 ; Move to side a little
G1 X0.4 Y20 Z0.3 F1500.0 E30 ; Draw the second line
G92 E0 ; Reset Extruder
G1 Z2.0 F3000 ; Move Z Axis up little to prevent scratching of Heat Bed
G1 X5 Y20 Z0.3 F5000.0 ; Move over to prevent blob squish
G92 E0
G92 E0
G1 F2700 E-5
;LAYER_COUNT:80
;LAYER:0
M107
G0 F6000 X104.629 Y104.27 Z0.2
;TYPE:SKIRT
G1 F2700 E0
G1 F1200 X104.973 Y103.944 E0.01576
G1 X105.496 Y103.479 E0.03904
G1 X105.899 Y103.145 E0.05645
G1 X106.47 Y102.703 E0.08046
G1 X106.943 Y102.361 E0.09988
G1 X107.527 Y101.969 E0.12327
G1 X107.878 Y101.749 E0.13705
G1 X108.474 Y101.403 E0.15997
G1 X109.064 Y101.086 E0.18225
G1 X109.701 Y100.77 E0.2059
G1 X110.14 Y100.57 E0.22194
G1 X110.91 Y100.252 E0.24965
G1 X111.837 Y99.925 E0.28235
G1 X112.564 Y99.708 E0.30758
G1 X113.125 Y99.563 E0.32685
G1 X114.077 Y99.361 E0.35922
G1 X114.84 Y99.236 E0.38494
G1 X115.55 Y99.145 E0.40874
G1 X115.975 Y99.105 E0.42294
G1 X116.693 Y99.061 E0.44687
G1 X117.417 Y99.042 E0.47096
G1 X118.342 Y99.056 E0.50173
G1 X119.044 Y99.106 E0.52513
G1 X119.831 Y99.19 E0.55146
G1 X120.56 Y99.292 E0.57594
G1 X120.967 Y99.363 E0.58968
G1 X121.671 Y99.51 E0.6136
G1 X122.545 Y99.744 E0.6437
G1 X123.326 Y99.989 E0.67092
G1 X124.024 Y100.233 E0.69551
G1 X124.452 Y100.401 E0.71081
G1 X125.09 Y100.675 E0.7339
G1 X125.533 Y100.882 E0.75016
G1 X126.173 Y101.208 E0.77405
G1 X126.685 Y101.492 E0.79353
G1 X127.272 Y101.842 E0.81626
G1 X127.728 Y102.135 E0.83428
G1 X128.314 Y102.539 E0.85796
G1 X128.749 Y102.862 E0.87598
G1 X129.446 Y103.42 E0.90567
G1 X130.087 Y103.997 E0.93436
G1 X130.584 Y104.481 E0.95743
G1 X131.059 Y104.977 E0.98028
G1 X131.469 Y105.432 E1.00065
G1 X131.963 Y106.024 E1.02629
G1 X132.193 Y106.32 E1.03876
G1 X132.574 Y106.843 E1.06028
G1 X132.877 Y107.286 E1.07813
G1 X133.235 Y107.851 E1.10038
G1 X133.632 Y108.522 E1.12631
G1 X134.203 Y109.627 E1.16768
G1 X134.468 Y110.226 E1.18946
G1 X134.818 Y111.118 E1.22133
G1 X135.133 Y112.045 E1.2539
G1 X135.454 Y113.207 E1.29399
G1 X135.61 Y113.939 E1.31889
G1 X135.745 Y114.718 E1.34518
G1 X135.826 Y115.31 E1.36506
G1 X135.9 Y116.055 E1.38996
G1 X135.944 Y116.734 E1.41259
G1 X135.964 Y117.631 E1.44243
G1 X135.954 Y118.067 E1.45693
G1 X135.912 Y118.821 E1.48205
G1 X135.844 Y119.573 E1.50717
G1 X135.757 Y120.266 E1.5304
G1 X135.713 Y120.546 E1.53982
G1 X135.582 Y121.222 E1.56272
G1 X135.422 Y121.931 E1.5869
G1 X135.246 Y122.607 E1.61013
G1 X135.166 Y122.873 E1.61937
G1 X134.933 Y123.571 E1.64385
G1 X134.698 Y124.2 E1.66618
G1 X134.422 Y124.864 E1.6901
G1 X134.083 Y125.614 E1.71747
G1 X133.675 Y126.42 E1.74752
G1 X133.021 Y127.489 E1.7892
G1 X132.64 Y128.057 E1.81195
G1 X132.328 Y128.491 E1.82972
G1 X131.889 Y129.06 E1.85363
G1 X131.41 Y129.639 E1.87862
G1 X130.803 Y130.311 E1.90874
G1 X130.117 Y130.977 E1.94054
G1 X129.711 Y131.34 E1.95865
G1 X129.313 Y131.68 E1.97606
G1 X128.765 Y132.123 E1.9995
G1 X128.085 Y132.629 E2.02769
G1 X127.318 Y133.139 E2.05833
G1 X127.017 Y133.324 E2.07008
G1 X126.409 Y133.669 E2.09333
G1 X125.841 Y133.968 E2.11468
G1 X125.067 Y134.342 E2.14327
G1 X124.195 Y134.701 E2.17464
G1 X123.458 Y134.968 E2.20071
G1 X122.798 Y135.181 E2.22377
G1 X122.217 Y135.347 E2.24387
G1 X121.361 Y135.557 E2.27319
G1 X120.592 Y135.701 E2.29921
G1 X119.782 Y135.821 E2.32644
G1 X118.491 Y135.935 E2.36955
G1 X117.745 Y135.956 E2.39437
G1 X116.91 Y135.948 E2.42214
G1 X116.256 Y135.915 E2.44392
G1 X115.54 Y135.853 E2.46783
G1 X115.056 Y135.795 E2.48404
G1 X114.359 Y135.689 E2.50749
G1 X113.761 Y135.577 E2.52772
G1 X113.055 Y135.42 E2.55178
G1 X112.705 Y135.33 E2.5638
G1 X112.04 Y135.135 E2.58685
G1 X111.518 Y134.963 E2.60513
G1 X110.846 Y134.717 E2.62893
G1 X110.274 Y134.483 E2.64949
G1 X109.658 Y134.209 E2.67191
G1 X109.224 Y133.999 E2.68794
G1 X108.603 Y133.673 E2.71127
G1 X108.179 Y133.432 E2.72749
G1 X107.566 Y133.055 E2.75143
G1 X107.022 Y132.694 E2.77314
G1 X106.468 Y132.301 E2.79574
G1 X106.168 Y132.073 E2.80827
G1 X105.608 Y131.615 E2.83233
G1 X105.132 Y131.199 E2.85336
G1 X104.614 Y130.716 E2.87691
G1 X104.096 Y130.197 E2.9013
G1 X103.211 Y129.189 E2.94592
G1 X102.67 Y128.485 E2.97545
G1 X102.249 Y127.895 E2.99955
G1 X102.009 Y127.533 E3.014
G1 X101.641 Y126.938 E3.03727
G1 X101.332 Y126.397 E3.05799
G1 X100.997 Y125.766 E3.08175
G1 X100.797 Y125.354 E3.09698
G1 X100.523 Y124.742 E3.11929
G1 X100.307 Y124.214 E3.13826
G1 X100.043 Y123.499 E3.16361
G1 X99.898 Y123.058 E3.17905
G1 X99.709 Y122.411 E3.20147
G1 X99.575 Y121.893 E3.21926
G1 X99.418 Y121.193 E3.24313
G1 X99.31 Y120.617 E3.26262
G1 X99.202 Y119.921 E3.28604
G1 X99.145 Y119.457 E3.30159
G1 X99.086 Y118.777 E3.32429
G1 X99.059 Y118.257 E3.34161
G1 X99.045 Y117.574 E3.36433
G1 X99.052 Y116.912 E3.38635
G1 X99.082 Y116.234 E3.40893
G1 X99.161 Y115.367 E3.43788
G1 X99.212 Y114.969 E3.45123
G1 X99.366 Y114.051 E3.48219
G1 X99.52 Y113.333 E3.50661
G1 X99.696 Y112.627 E3.53081
G1 X99.813 Y112.217 E3.54499
G1 X100.022 Y111.571 E3.56757
G1 X100.284 Y110.843 E3.59331
G1 X100.593 Y110.08 E3.62069
G1 X100.975 Y109.274 E3.65035
G1 X101.215 Y108.811 E3.6677
G1 X101.549 Y108.218 E3.69034
G1 X101.886 Y107.659 E3.71205
G1 X102.292 Y107.04 E3.73667
G1 X102.541 Y106.686 E3.75106
G1 X102.956 Y106.135 E3.774
G1 X103.275 Y105.74 E3.79089
G1 X103.723 Y105.218 E3.81377
G1 X104.106 Y104.801 E3.8326
G1 X104.629 Y104.27 E3.85739
G0 F6000 X104.904 Y104.56
G1 F1200 X105.238 Y104.243 E3.87271
G1 X105.752 Y103.787 E3.89556
G1 X106.144 Y103.461 E3.91252
G1 X106.704 Y103.027 E3.93608
G1 X107.166 Y102.693 E3.95504
G1 X107.739 Y102.308 E3.97801
G1 X108.079 Y102.095 E3.99135
G1 X108.664 Y101.755 E4.01385
G1 X109.242 Y101.444 E4.03568
G1 X109.867 Y101.134 E4.05889
G1 X110.293 Y100.94 E4.07446
G1 X111.063 Y100.622 E4.10217
G1 X111.951 Y100.308 E4.13349
G1 X112.664 Y100.095 E4.15824
G1 X113.208 Y99.954 E4.17693
G1 X114.142 Y99.756 E4.20869
G1 X114.891 Y99.633 E4.23394
G1 X115.588 Y99.543 E4.25731
G1 X115.999 Y99.504 E4.27104
G1 X116.704 Y99.461 E4.29453
G1 X117.411 Y99.442 E4.31806
G1 X118.314 Y99.455 E4.34809
G1 X119.002 Y99.504 E4.37103
G1 X119.776 Y99.586 E4.39692
G1 X120.491 Y99.686 E4.42093
G1 X120.885 Y99.755 E4.43424
G1 X121.589 Y99.902 E4.45816
G1 X122.426 Y100.126 E4.48698
G1 X123.194 Y100.366 E4.51374
G1 X123.878 Y100.606 E4.53785
G1 X124.295 Y100.769 E4.55274
G1 X124.921 Y101.037 E4.57539
G1 X125.351 Y101.238 E4.59118
G1 X125.979 Y101.558 E4.61462
G1 X126.48 Y101.835 E4.63366
G1 X127.056 Y102.179 E4.65597
G1 X127.501 Y102.464 E4.67355
G1 X128.076 Y102.86 E4.69677
G1 X128.499 Y103.174 E4.71429
G1 X129.178 Y103.717 E4.74321
G1 X129.808 Y104.284 E4.7714
G1 X130.295 Y104.758 E4.794
G1 X130.762 Y105.245 E4.81645
G1 X131.162 Y105.689 E4.83632
G1 X131.647 Y106.269 E4.86147
G1 X131.87 Y106.556 E4.87356
G1 X132.244 Y107.069 E4.89467
G1 X132.539 Y107.5 E4.91204
G1 X132.891 Y108.055 E4.9339
G1 X133.277 Y108.706 E4.95908
G1 X133.837 Y109.789 E4.99963
G1 X134.096 Y110.372 E5.02084
G1 X134.439 Y111.247 E5.0521
G1 X134.747 Y112.152 E5.0839
G1 X135.068 Y113.314 E5.12399
G1 X135.216 Y114.008 E5.1476
G1 X135.349 Y114.772 E5.17339
G1 X135.428 Y115.35 E5.19279
G1 X135.501 Y116.081 E5.21723
G1 X135.544 Y116.743 E5.23929
G1 X135.564 Y117.622 E5.26853
G1 X135.555 Y118.045 E5.28261
G1 X135.514 Y118.785 E5.30726
G1 X135.447 Y119.523 E5.3319
G1 X135.362 Y120.204 E5.35473
G1 X135.32 Y120.47 E5.36369
G1 X135.192 Y121.134 E5.38618
G1 X135.035 Y121.83 E5.40991
G1 X134.863 Y122.492 E5.43266
G1 X134.787 Y122.746 E5.44148
G1 X134.558 Y123.431 E5.4655
G1 X134.328 Y124.047 E5.48737
G1 X134.058 Y124.699 E5.51084
G1 X133.726 Y125.433 E5.53763
G1 X133.318 Y126.239 E5.56768
G1 X132.689 Y127.266 E5.60774
G1 X132.315 Y127.824 E5.63008
G1 X132.011 Y128.247 E5.6474
G1 X131.581 Y128.805 E5.67083
G1 X131.113 Y129.371 E5.69526
G1 X130.506 Y130.043 E5.72538
G1 X129.85 Y130.679 E5.75577
G1 X129.451 Y131.036 E5.77358
G1 X129.061 Y131.369 E5.79063
G1 X128.526 Y131.802 E5.81353
G1 X127.863 Y132.296 E5.84103
G1 X127.109 Y132.798 E5.87115
G1 X126.819 Y132.976 E5.88247
G1 X126.223 Y133.315 E5.90528
G1 X125.667 Y133.608 E5.92618
G1 X124.915 Y133.972 E5.95397
G1 X124.059 Y134.325 E5.98476
G1 X123.335 Y134.587 E6.01037
G1 X122.675 Y134.8 E6.03344
G1 X122.121 Y134.959 E6.05261
G1 X121.288 Y135.164 E6.08114
G1 X120.533 Y135.305 E6.10669
G1 X119.723 Y135.425 E6.13392
G1 X118.48 Y135.535 E6.17543
G1 X117.749 Y135.556 E6.19975
G1 X116.93 Y135.548 E6.22699
G1 X116.29 Y135.516 E6.2483
G1 X115.587 Y135.456 E6.27177
G1 X115.116 Y135.4 E6.28755
G1 X114.432 Y135.296 E6.31056
G1 X113.848 Y135.187 E6.33032
G1 X113.155 Y135.033 E6.35393
G1 X112.817 Y134.946 E6.36554
G1 X112.165 Y134.755 E6.38813
G1 X111.656 Y134.587 E6.40596
G1 X110.984 Y134.341 E6.42976
G1 X110.437 Y134.118 E6.44941
G1 X109.832 Y133.849 E6.47143
G1 X109.41 Y133.645 E6.48702
G1 X108.801 Y133.325 E6.5099
G1 X108.389 Y133.091 E6.52566
G1 X107.776 Y132.714 E6.5496
G1 X107.253 Y132.367 E6.57047
G1 X106.71 Y131.983 E6.59259
G1 X106.421 Y131.763 E6.60467
G1 X105.871 Y131.314 E6.62829
G1 X105.405 Y130.907 E6.64887
G1 X104.897 Y130.433 E6.67198
G1 X104.397 Y129.933 E6.69549
G1 X103.512 Y128.925 E6.74011
G1 X102.995 Y128.252 E6.76833
G1 X102.582 Y127.674 E6.79196
G1 X102.349 Y127.323 E6.80597
G1 X101.988 Y126.739 E6.82881
G1 X101.685 Y126.209 E6.84912
G1 X101.357 Y125.591 E6.87239
G1 X101.162 Y125.19 E6.88722
G1 X100.893 Y124.59 E6.90909
G1 X100.682 Y124.076 E6.92757
G1 X100.423 Y123.374 E6.95245
G1 X100.282 Y122.946 E6.96744
G1 X100.096 Y122.311 E6.98945
G1 X99.965 Y121.806 E7.0068
G1 X99.811 Y121.119 E7.03022
G1 X99.705 Y120.556 E7.04927
G1 X99.599 Y119.873 E7.07226
G1 X99.544 Y119.422 E7.08737
G1 X99.485 Y118.742 E7.11007
G1 X99.459 Y118.249 E7.12649
G1 X99.445 Y117.578 E7.14882
G1 X99.452 Y116.93 E7.17037
G1 X99.482 Y116.252 E7.19294
G1 X99.558 Y115.417 E7.22083
G1 X99.606 Y115.035 E7.23364
G1 X99.757 Y114.135 E7.26399
G1 X99.908 Y113.429 E7.288
G1 X100.08 Y112.737 E7.31172
G1 X100.194 Y112.34 E7.32545
G1 X100.403 Y111.694 E7.34804
G1 X100.655 Y110.993 E7.37281
G1 X100.964 Y110.23 E7.40019
G1 X101.33 Y109.458 E7.42861
G1 X101.564 Y109.007 E7.44551
G1 X101.891 Y108.425 E7.46771
G1 X102.221 Y107.878 E7.48896
G1 X102.619 Y107.27 E7.51313
G1 X102.861 Y106.926 E7.52712
G1 X103.267 Y106.386 E7.54959
G1 X103.578 Y106.001 E7.56605
G1 X104.018 Y105.489 E7.5885
G1 X104.401 Y105.072 E7.60734
G1 X104.904 Y104.56 E7.63121
G0 F6000 X105.18 Y104.85
G1 F1200 X105.504 Y104.542 E7.64608
G1 X106.008 Y104.094 E7.6685
G1 X106.389 Y103.777 E7.68499
G1 X106.938 Y103.351 E7.7081
G1 X107.389 Y103.025 E7.72661
G1 X107.951 Y102.647 E7.74914
G1 X108.28 Y102.441 E7.76205
G1 X108.854 Y102.107 E7.78414
G1 X109.42 Y101.802 E7.80552
G1 X110.033 Y101.498 E7.82828
G1 X110.446 Y101.31 E7.84337
G1 X111.197 Y100.999 E7.87041
G1 X112.066 Y100.691 E7.90107
G1 X112.765 Y100.482 E7.92534
G1 X113.291 Y100.345 E7.94342
G1 X114.207 Y100.151 E7.97456
G1 X114.943 Y100.03 E7.99937
G1 X115.626 Y99.941 E8.02227
G1 X116.023 Y99.903 E8.03554
G1 X116.715 Y99.861 E8.0586
G1 X117.406 Y99.842 E8.08159
G1 X118.286 Y99.854 E8.11086
G1 X118.96 Y99.902 E8.13333
G1 X119.721 Y99.982 E8.15878
G1 X120.422 Y100.08 E8.18233
G1 X120.803 Y100.147 E8.19519
G1 X121.507 Y100.294 E8.21911
G1 X122.307 Y100.508 E8.24666
G1 X123.061 Y100.743 E8.27293
G1 X123.733 Y100.979 E8.29661
G1 X124.138 Y101.137 E8.31107
G1 X124.752 Y101.399 E8.33328
G1 X125.169 Y101.594 E8.34859
G1 X125.785 Y101.908 E8.37158
G1 X126.275 Y102.179 E8.39021
G1 X126.84 Y102.516 E8.41209
G1 X127.274 Y102.794 E8.42923
G1 X127.838 Y103.182 E8.452
G1 X128.249 Y103.486 E8.469
G1 X128.911 Y104.015 E8.49719
G1 X129.529 Y104.57 E8.52481
G1 X130.006 Y105.035 E8.54697
G1 X130.465 Y105.513 E8.56901
G1 X130.855 Y105.946 E8.58839
G1 X131.331 Y106.514 E8.61304
G1 X131.547 Y106.792 E8.62475
G1 X131.914 Y107.295 E8.64546
G1 X132.201 Y107.715 E8.66238
G1 X132.547 Y108.259 E8.68382
G1 X132.922 Y108.89 E8.70824
G1 X133.472 Y109.952 E8.74802
G1 X133.724 Y110.518 E8.76862
G1 X134.06 Y111.376 E8.79927
G1 X134.361 Y112.259 E8.8303
G1 X134.682 Y113.421 E8.87039
G1 X134.822 Y114.077 E8.8927
G1 X134.953 Y114.826 E8.91799
G1 X135.03 Y115.39 E8.93693
G1 X135.102 Y116.107 E8.96089
G1 X135.144 Y116.752 E8.98239
G1 X135.164 Y117.614 E9.01107
G1 X135.156 Y118.023 E9.02468
G1 X135.116 Y118.749 E9.04886
G1 X135.05 Y119.474 E9.07307
G1 X134.967 Y120.142 E9.09546
G1 X134.927 Y120.395 E9.10398
G1 X134.802 Y121.046 E9.12603
G1 X134.648 Y121.729 E9.14932
G1 X134.479 Y122.379 E9.17165
G1 X134.408 Y122.619 E9.17998
G1 X134.183 Y123.291 E9.20355
G1 X133.958 Y123.894 E9.22496
G1 X133.694 Y124.534 E9.24798
G1 X133.369 Y125.252 E9.27419
G1 X132.961 Y126.058 E9.30424
G1 X132.357 Y127.043 E9.34267
G1 X131.99 Y127.591 E9.36461
G1 X131.694 Y128.003 E9.38148
G1 X131.273 Y128.55 E9.40444
G1 X130.816 Y129.103 E9.4283
G1 X130.227 Y129.756 E9.45755
G1 X129.583 Y130.381 E9.4874
G1 X129.191 Y130.732 E9.5049
G1 X128.809 Y131.058 E9.5216
G1 X128.287 Y131.481 E9.54395
G1 X127.641 Y131.963 E9.57075
G1 X126.899 Y132.457 E9.6004
G1 X126.621 Y132.628 E9.61126
G1 X126.036 Y132.961 E9.63365
G1 X125.492 Y133.248 E9.6541
G1 X124.762 Y133.602 E9.68109
G1 X123.923 Y133.949 E9.71129
G1 X123.212 Y134.206 E9.73643
G1 X122.564 Y134.416 E9.75909
G1 X122.025 Y134.571 E9.77774
G1 X121.215 Y134.771 E9.80549
G1 X120.474 Y134.909 E9.83056
G1 X119.664 Y135.029 E9.8578
G1 X118.468 Y135.135 E9.89773
G1 X117.753 Y135.156 E9.92152
G1 X116.95 Y135.148 E9.94823
G1 X116.324 Y135.117 E9.96908
G1 X115.634 Y135.059 E9.99211
G1 X115.176 Y135.005 E10.00745
G1 X114.505 Y134.903 E10.03002
G1 X113.935 Y134.797 E10.0493
G1 X113.255 Y134.646 E10.07247
G1 X112.929 Y134.562 E10.08367
G1 X112.29 Y134.375 E10.10581
G1 X111.794 Y134.212 E10.12318
G1 X111.135 Y133.97 E10.14653
G1 X110.599 Y133.752 E10.16577
G1 X110.006 Y133.489 E10.18735
G1 X109.596 Y133.291 E10.20249
G1 X108.998 Y132.977 E10.22496
G1 X108.598 Y132.75 E10.24025
G1 X107.997 Y132.381 E10.26371
G1 X107.484 Y132.041 E10.28418
G1 X106.952 Y131.664 E10.30587
G1 X106.674 Y131.453 E10.31748
G1 X106.134 Y131.013 E10.34064
G1 X105.678 Y130.615 E10.36077
G1 X105.18 Y130.15 E10.38344
G1 X104.698 Y129.669 E10.40608
G1 X103.813 Y128.661 E10.4507
G1 X103.32 Y128.019 E10.47762
G1 X102.915 Y127.453 E10.50077
G1 X102.689 Y127.113 E10.51435
G1 X102.335 Y126.54 E10.53675
G1 X102.038 Y126.022 E10.55661
G1 X101.717 Y125.416 E10.57942
G1 X101.527 Y125.026 E10.59385
G1 X101.263 Y124.438 E10.61528
G1 X101.057 Y123.937 E10.6333
G1 X100.803 Y123.249 E10.65769
G1 X100.666 Y122.833 E10.67226
G1 X100.483 Y122.21 E10.69386
G1 X100.355 Y121.718 E10.71077
G1 X100.204 Y121.045 E10.73371
G1 X100.1 Y120.495 E10.75232
G1 X99.996 Y119.825 E10.77488
G1 X99.943 Y119.387 E10.78955
G1 X99.884 Y118.707 E10.81225
G1 X99.859 Y118.24 E10.82781
G1 X99.845 Y117.582 E10.8497
G1 X99.852 Y116.948 E10.87078
G1 X99.882 Y116.27 E10.89336
G1 X99.955 Y115.466 E10.92021
G1 X100 Y115.101 E10.93244
G1 X100.148 Y114.219 E10.96219
G1 X100.296 Y113.526 E10.98575
G1 X100.465 Y112.847 E11.00903
G1 X100.575 Y112.463 E11.02231
G1 X100.78 Y111.829 E11.04447
G1 X101.026 Y111.143 E11.06871
G1 X101.335 Y110.38 E11.09609
G1 X101.685 Y109.642 E11.12326
G1 X101.913 Y109.203 E11.13971
G1 X102.233 Y108.632 E11.16148
G1 X102.556 Y108.097 E11.18227
G1 X102.946 Y107.5 E11.20599
G1 X103.181 Y107.166 E11.21957
G1 X103.579 Y106.637 E11.24159
G1 X103.881 Y106.262 E11.2576
G1 X104.313 Y105.76 E11.27963
G1 X104.696 Y105.343 E11.29846
G1 X105.18 Y104.85 E11.32144
G1 F2700 E6.32144
;MESH:TUBE_PRINT.stl
G0 F6000 X112.754 Y114.198
G0 X117.603 Y123.1
;TYPE:WALL-INNER
G1 F2700 E11.32144
