;FLAVOR:Marlin
;TIME:2766
;Filament used: 1.63806m
;Layer height: 0.2
;MINX:95.013
;MINY:95.02
;MINZ:0.2
;MAXX:139.987
;MAXY:139.98
;MAXZ:27.8
;TARGET_MACHINE.NAME:Creality Ender-3
;Generated with Cura_SteamEngine 5.6.0
M140 S50
M105
M190 S50
M104 S200
M105
M109 S200
M82 ;absolute extrusion mode
; Ender 3 Custom Start G-code
G92 E0 ; Reset Extruder
G28 ; Home all axes
G1 Z2.0 F3000 ; Move Z Axis up little to prevent scratching of Heat Bed
G1 X0.1 Y20 Z0.3 F5000.0 ; Move to start position
G1 X0.1 Y200.0 Z0.3 F1500.0 E15 ; Draw the first line
G1 X0.4 Y200.0 Z0.3 F5000.0 ; Move to side a little
G1 X0.4 Y20 Z0.3 F1500.0 E30 ; Draw the second line
G92 E0 ; Reset Extruder
G1 Z2.0 F3000 ; Move Z Axis up little to prevent scratching of Heat Bed
G1 X5 Y20 Z0.3 F5000.0 ; Move over to prevent blob squish
G92 E0
G92 E0
G1 F2700 E-5
;LAYER_COUNT:139
;LAYER:0
M107
G0 F6000 X101.667 Y101.529 Z0.2
;TYPE:SKIRT
G1 F2700 E0
G1 F1200 X102.327 Y100.901 E0.0303
G1 X102.919 Y100.379 E0.05655
G1 X103.585 Y99.833 E0.0852
G1 X104.138 Y99.41 E0.10835
G1 X104.976 Y98.82 E0.14244
G1 X105.567 Y98.437 E0.16586
G1 X106.044 Y98.148 E0.18441
G1 X106.606 Y97.823 E0.20601
G1 X107.514 Y97.349 E0.24007
G1 X108.099 Y97.068 E0.26166
G1 X109.053 Y96.658 E0.2962
G1 X109.863 Y96.346 E0.32507
G1 X110.768 Y96.041 E0.35683
G1 X111.448 Y95.841 E0.3804
G1 X112.287 Y95.623 E0.40924
G1 X113.074 Y95.451 E0.43603
G1 X113.55 Y95.362 E0.45214
G1 X114.308 Y95.239 E0.47768
G1 X115.066 Y95.145 E0.50308
G1 X115.876 Y95.073 E0.53013
G1 X116.635 Y95.032 E0.55541
G1 X117.687 Y95.02 E0.5904
G1 X118.38 Y95.032 E0.61345
G1 X119.138 Y95.068 E0.63869
G1 X119.829 Y95.131 E0.66177
G1 X120.573 Y95.222 E0.6867
G1 X121.299 Y95.332 E0.71112
G1 X122.253 Y95.518 E0.74345
G1 X123.183 Y95.739 E0.77524
G1 X124.192 Y96.027 E0.81014
G1 X124.823 Y96.235 E0.83224
G1 X125.507 Y96.485 E0.85646
G1 X126.23 Y96.774 E0.88236
G1 X126.66 Y96.963 E0.89798
G1 X127.374 Y97.296 E0.92419
G1 X127.986 Y97.605 E0.94699
G1 X128.555 Y97.917 E0.96857
G1 X129.114 Y98.244 E0.99011
G1 X129.828 Y98.694 E1.01818
G1 X130.501 Y99.148 E1.04519
G1 X130.959 Y99.485 E1.0641
G1 X131.632 Y100.007 E1.09243
G1 X132.223 Y100.502 E1.11807
G1 X132.872 Y101.085 E1.14708
G1 X133.45 Y101.649 E1.17394
G1 X134.078 Y102.307 E1.2042
G1 X134.593 Y102.888 E1.23002
G1 X135.146 Y103.56 E1.25896
G1 X135.578 Y104.122 E1.28254
G1 X135.94 Y104.628 E1.30323
G1 X136.344 Y105.224 E1.32718
G1 X136.625 Y105.673 E1.3448
G1 X137.061 Y106.407 E1.37319
G1 X137.425 Y107.072 E1.39841
G1 X137.793 Y107.808 E1.42578
G1 X138.122 Y108.531 E1.4522
G1 X138.471 Y109.381 E1.48276
G1 X138.712 Y110.031 E1.50582
G1 X138.907 Y110.612 E1.5262
G1 X139.101 Y111.239 E1.54803
G1 X139.242 Y111.762 E1.56605
G1 X139.442 Y112.577 E1.59396
G1 X139.585 Y113.253 E1.61694
G1 X139.695 Y113.881 E1.63814
G1 X139.792 Y114.52 E1.65964
G1 X139.861 Y115.103 E1.67917
G1 X139.937 Y115.982 E1.70851
G1 X139.975 Y116.763 E1.73452
G1 X139.987 Y117.644 E1.76382
G1 X139.968 Y118.426 E1.78984
G1 X139.915 Y119.311 E1.81933
G1 X139.835 Y120.111 E1.84607
G1 X139.715 Y120.985 E1.87541
G1 X139.606 Y121.635 E1.89733
G1 X139.49 Y122.217 E1.91707
G1 X139.318 Y122.957 E1.94234
G1 X139.193 Y123.425 E1.95845
G1 X138.952 Y124.244 E1.98684
G1 X138.699 Y124.999 E2.01333
G1 X138.385 Y125.835 E2.04303
G1 X138.108 Y126.5 E2.06699
G1 X137.688 Y127.395 E2.09987
G1 X137.217 Y128.308 E2.13404
G1 X136.898 Y128.882 E2.15588
G1 X136.542 Y129.465 E2.1786
G1 X136.239 Y129.934 E2.19718
G1 X135.836 Y130.522 E2.22088
G1 X135.521 Y130.951 E2.23859
G1 X135 Y131.623 E2.26687
G1 X134.49 Y132.234 E2.29334
G1 X133.895 Y132.894 E2.32289
G1 X133.333 Y133.471 E2.34968
G1 X132.673 Y134.099 E2.37999
G1 X132.08 Y134.622 E2.40628
G1 X131.415 Y135.165 E2.43484
G1 X130.859 Y135.592 E2.45815
G1 X130.344 Y135.959 E2.47919
G1 X129.777 Y136.344 E2.50198
G1 X129.335 Y136.621 E2.51933
G1 X128.61 Y137.051 E2.54737
G1 X128.01 Y137.382 E2.57016
G1 X127.485 Y137.649 E2.58975
G1 X126.871 Y137.944 E2.61241
G1 X125.943 Y138.344 E2.64602
G1 X124.984 Y138.707 E2.68012
G1 X124.362 Y138.916 E2.70195
G1 X123.216 Y139.25 E2.74165
G1 X122.288 Y139.475 E2.77341
G1 X121.449 Y139.638 E2.80183
G1 X120.69 Y139.761 E2.82741
G1 X119.932 Y139.855 E2.85281
G1 X119.122 Y139.927 E2.87986
G1 X118.365 Y139.968 E2.90507
G1 X117.313 Y139.98 E2.94007
G1 X116.621 Y139.968 E2.96309
G1 X115.864 Y139.932 E2.98829
G1 X115.169 Y139.869 E3.0115
G1 X114.427 Y139.778 E3.03637
G1 X113.708 Y139.669 E3.06055
G1 X112.74 Y139.48 E3.09336
G1 X112.281 Y139.376 E3.10901
G1 X111.38 Y139.143 E3.13996
G1 X110.807 Y138.973 E3.15984
G1 X110.14 Y138.75 E3.18324
G1 X109.333 Y138.452 E3.21185
G1 X108.678 Y138.185 E3.23537
G1 X107.999 Y137.882 E3.2601
G1 X107.269 Y137.528 E3.28709
G1 X106.773 Y137.265 E3.30576
G1 X106.101 Y136.885 E3.33144
G1 X105.555 Y136.553 E3.35269
G1 X104.729 Y136.011 E3.38555
G1 X104.055 Y135.526 E3.41317
G1 X103.404 Y135.023 E3.44053
G1 X102.761 Y134.485 E3.46842
G1 X102.095 Y133.884 E3.49825
G1 X101.52 Y133.324 E3.52495
G1 X100.899 Y132.671 E3.55492
G1 X100.378 Y132.08 E3.58113
G1 X99.835 Y131.416 E3.60965
G1 X99.411 Y130.863 E3.63283
G1 X99.041 Y130.346 E3.65398
G1 X98.653 Y129.77 E3.67708
G1 X98.38 Y129.338 E3.69407
G1 X97.945 Y128.605 E3.72242
G1 X97.605 Y127.987 E3.74588
G1 X97.337 Y127.463 E3.76546
G1 X97.059 Y126.882 E3.78688
G1 X96.844 Y126.388 E3.8048
G1 X96.519 Y125.594 E3.83333
G1 X96.242 Y124.836 E3.86018
G1 X95.96 Y123.959 E3.89082
G1 X95.751 Y123.221 E3.91633
G1 X95.557 Y122.427 E3.94351
G1 X95.416 Y121.753 E3.96642
G1 X95.241 Y120.724 E4.00113
G1 X95.15 Y119.999 E4.02543
G1 X95.096 Y119.451 E4.04375
G1 X95.047 Y118.794 E4.06566
G1 X95.025 Y118.237 E4.0842
G1 X95.013 Y117.356 E4.11351
G1 X95.032 Y116.574 E4.13952
G1 X95.085 Y115.69 E4.16898
G1 X95.165 Y114.886 E4.19585
G1 X95.287 Y113.997 E4.2257
G1 X95.402 Y113.323 E4.24844
G1 X95.628 Y112.265 E4.28442
G1 X95.855 Y111.389 E4.31452
G1 X96.02 Y110.831 E4.33387
G1 X96.226 Y110.203 E4.35586
G1 X96.464 Y109.547 E4.37907
G1 X96.702 Y108.94 E4.40075
G1 X96.894 Y108.491 E4.41699
G1 X97.143 Y107.943 E4.43701
G1 X97.486 Y107.241 E4.463
G1 X97.734 Y106.778 E4.48047
G1 X98.113 Y106.105 E4.50616
G1 X98.442 Y105.56 E4.52733
G1 X98.764 Y105.062 E4.54706
G1 X99.164 Y104.478 E4.5706
G1 X99.479 Y104.049 E4.5883
G1 X100 Y103.377 E4.61658
G1 X100.51 Y102.766 E4.64305
G1 X101.105 Y102.106 E4.67261
G1 X101.667 Y101.529 E4.6994
G0 F6000 X101.943 Y101.819
G1 F1200 X102.592 Y101.201 E4.72921
G1 X103.173 Y100.688 E4.75499
G1 X103.828 Y100.151 E4.78316
G1 X104.369 Y99.737 E4.80581
G1 X105.193 Y99.156 E4.83935
G1 X105.775 Y98.779 E4.86241
G1 X106.244 Y98.494 E4.88067
G1 X106.791 Y98.178 E4.90168
G1 X107.687 Y97.71 E4.9353
G1 X108.272 Y97.429 E4.95688
G1 X109.197 Y97.031 E4.99038
G1 X109.991 Y96.725 E5.01868
G1 X110.881 Y96.425 E5.04992
G1 X111.549 Y96.228 E5.07308
G1 X112.373 Y96.014 E5.10139
G1 X113.147 Y95.844 E5.12775
G1 X113.614 Y95.757 E5.14355
G1 X114.358 Y95.636 E5.16862
G1 X115.102 Y95.543 E5.19356
G1 X115.898 Y95.472 E5.22014
G1 X116.64 Y95.432 E5.24486
G1 X117.68 Y95.42 E5.27945
G1 X118.361 Y95.432 E5.3021
G1 X119.119 Y95.468 E5.32734
G1 X119.78 Y95.528 E5.34942
G1 X120.513 Y95.618 E5.37398
G1 X121.222 Y95.725 E5.39783
G1 X122.176 Y95.911 E5.43016
G1 X123.073 Y96.124 E5.46082
G1 X124.067 Y96.407 E5.49519
G1 X124.686 Y96.611 E5.51687
G1 X125.358 Y96.856 E5.54066
G1 X126.07 Y97.141 E5.56617
G1 X126.491 Y97.325 E5.58145
G1 X127.194 Y97.653 E5.60725
G1 X127.794 Y97.956 E5.62961
G1 X128.353 Y98.262 E5.6508
G1 X128.901 Y98.583 E5.67193
G1 X129.604 Y99.025 E5.69955
G1 X130.264 Y99.471 E5.72604
G1 X130.714 Y99.801 E5.7446
G1 X131.375 Y100.314 E5.77243
G1 X131.956 Y100.8 E5.79762
G1 X132.593 Y101.372 E5.8261
G1 X133.161 Y101.925 E5.85247
G1 X133.779 Y102.573 E5.88225
G1 X134.284 Y103.142 E5.90755
G1 X134.829 Y103.804 E5.93607
G1 X135.253 Y104.355 E5.9592
G1 X135.609 Y104.852 E5.97953
G1 X136.005 Y105.436 E6.003
G1 X136.281 Y105.877 E6.0203
G1 X136.71 Y106.599 E6.04823
G1 X137.067 Y107.251 E6.07296
G1 X137.429 Y107.974 E6.09985
G1 X137.752 Y108.683 E6.12576
G1 X138.096 Y109.52 E6.15586
G1 X138.333 Y110.158 E6.1785
G1 X138.525 Y110.73 E6.19857
G1 X138.715 Y111.343 E6.21991
G1 X138.854 Y111.857 E6.23762
G1 X139.051 Y112.66 E6.26512
G1 X139.191 Y113.322 E6.28763
G1 X139.3 Y113.941 E6.30853
G1 X139.395 Y114.567 E6.32959
G1 X139.462 Y115.138 E6.34871
G1 X139.537 Y116.002 E6.37756
G1 X139.575 Y116.769 E6.4031
G1 X139.587 Y117.635 E6.43191
G1 X139.569 Y118.402 E6.45742
G1 X139.517 Y119.271 E6.48638
G1 X139.439 Y120.057 E6.51265
G1 X139.321 Y120.919 E6.54159
G1 X139.214 Y121.557 E6.5631
G1 X139.1 Y122.127 E6.58244
G1 X138.932 Y122.853 E6.60722
G1 X138.809 Y123.312 E6.62303
G1 X138.573 Y124.117 E6.65093
G1 X138.325 Y124.858 E6.67692
G1 X138.016 Y125.681 E6.70616
G1 X137.746 Y126.33 E6.72954
G1 X137.332 Y127.212 E6.76194
G1 X136.867 Y128.114 E6.79569
G1 X136.556 Y128.674 E6.817
G1 X136.206 Y129.248 E6.83936
G1 X135.909 Y129.708 E6.85757
G1 X135.514 Y130.285 E6.88083
G1 X135.205 Y130.706 E6.8982
G1 X134.693 Y131.367 E6.92601
G1 X134.193 Y131.966 E6.95196
G1 X133.608 Y132.615 E6.98102
G1 X133.057 Y133.181 E7.00729
G1 X132.408 Y133.799 E7.0371
G1 X131.827 Y134.312 E7.06288
G1 X131.172 Y134.848 E7.09103
G1 X130.627 Y135.266 E7.11387
G1 X130.12 Y135.628 E7.13459
G1 X129.564 Y136.005 E7.15693
G1 X129.131 Y136.277 E7.17394
G1 X128.417 Y136.701 E7.20156
G1 X127.828 Y137.026 E7.22394
G1 X127.312 Y137.289 E7.2432
G1 X126.713 Y137.577 E7.2653
G1 X125.801 Y137.97 E7.29833
G1 X124.856 Y138.328 E7.33195
G1 X124.25 Y138.532 E7.35321
G1 X123.122 Y138.861 E7.39229
G1 X122.212 Y139.082 E7.42344
G1 X121.385 Y139.243 E7.45146
G1 X120.64 Y139.364 E7.47657
G1 X119.896 Y139.457 E7.5015
G1 X119.1 Y139.528 E7.52808
G1 X118.36 Y139.568 E7.55273
G1 X117.32 Y139.58 E7.58733
G1 X116.64 Y139.568 E7.60995
G1 X115.883 Y139.532 E7.63515
G1 X115.218 Y139.472 E7.65736
G1 X114.487 Y139.382 E7.68186
G1 X113.784 Y139.276 E7.7055
G1 X112.828 Y139.09 E7.7379
G1 X112.381 Y138.989 E7.75314
G1 X111.493 Y138.759 E7.78365
G1 X110.934 Y138.594 E7.80303
G1 X110.278 Y138.375 E7.82604
G1 X109.484 Y138.082 E7.85418
G1 X108.841 Y137.82 E7.87728
G1 X108.174 Y137.522 E7.90158
G1 X107.444 Y137.168 E7.92856
G1 X106.97 Y136.917 E7.9464
G1 X106.308 Y136.543 E7.97169
G1 X105.774 Y136.219 E7.99246
G1 X104.963 Y135.687 E8.02472
G1 X104.3 Y135.209 E8.05191
G1 X103.649 Y134.706 E8.07927
G1 X103.029 Y134.188 E8.10614
G1 X102.374 Y133.597 E8.13548
G1 X101.81 Y133.048 E8.16166
G1 X101.199 Y132.406 E8.19114
G1 X100.688 Y131.827 E8.21682
G1 X100.152 Y131.172 E8.24497
G1 X99.736 Y130.63 E8.2677
G1 X99.373 Y130.122 E8.28847
G1 X98.991 Y129.556 E8.31118
G1 X98.724 Y129.134 E8.32779
G1 X98.295 Y128.412 E8.35572
G1 X97.961 Y127.805 E8.37876
G1 X97.698 Y127.29 E8.398
G1 X97.426 Y126.722 E8.41894
G1 X97.214 Y126.236 E8.43658
G1 X96.895 Y125.457 E8.46458
G1 X96.623 Y124.713 E8.49092
G1 X96.345 Y123.85 E8.52108
G1 X96.14 Y123.126 E8.54611
G1 X95.949 Y122.345 E8.57285
G1 X95.808 Y121.671 E8.59575
G1 X95.638 Y120.674 E8.62939
G1 X95.548 Y119.96 E8.65333
G1 X95.495 Y119.421 E8.67134
G1 X95.447 Y118.778 E8.69278
G1 X95.425 Y118.231 E8.71099
G1 X95.413 Y117.365 E8.7398
G1 X95.431 Y116.598 E8.76532
G1 X95.483 Y115.729 E8.79427
G1 X95.561 Y114.94 E8.82064
G1 X95.681 Y114.064 E8.85005
G1 X95.793 Y113.406 E8.87225
G1 X96.015 Y112.365 E8.90765
G1 X96.239 Y111.502 E8.93731
G1 X96.4 Y110.956 E8.95624
G1 X96.602 Y110.34 E8.9778
G1 X96.837 Y109.693 E9.0007
G1 X97.07 Y109.097 E9.02198
G1 X97.258 Y108.657 E9.03789
G1 X97.503 Y108.118 E9.05759
G1 X97.839 Y107.429 E9.08308
G1 X98.082 Y106.974 E9.10024
G1 X98.455 Y106.312 E9.12551
G1 X98.778 Y105.777 E9.1463
G1 X99.094 Y105.288 E9.16566
G1 X99.486 Y104.715 E9.18875
G1 X99.795 Y104.294 E9.20612
G1 X100.307 Y103.633 E9.23393
G1 X100.807 Y103.034 E9.25988
G1 X101.392 Y102.385 E9.28894
G1 X101.943 Y101.819 E9.31522
G0 F6000 X102.219 Y102.109
G1 F1200 X102.857 Y101.501 E9.34453
G1 X103.427 Y100.997 E9.36984
G1 X104.071 Y100.469 E9.39753
G1 X104.6 Y100.064 E9.41969
G1 X105.411 Y99.492 E9.4527
G1 X105.983 Y99.121 E9.47538
G1 X106.444 Y98.84 E9.49333
G1 X106.976 Y98.533 E9.51376
G1 X107.86 Y98.071 E9.54694
G1 X108.445 Y97.79 E9.56852
G1 X109.341 Y97.404 E9.60097
G1 X110.119 Y97.104 E9.62871
G1 X110.994 Y96.809 E9.65942
G1 X111.65 Y96.615 E9.68217
G1 X112.459 Y96.405 E9.70997
G1 X113.22 Y96.237 E9.73589
G1 X113.678 Y96.152 E9.75138
G1 X114.408 Y96.033 E9.77598
G1 X115.138 Y95.941 E9.80046
G1 X115.919 Y95.871 E9.82654
G1 X116.645 Y95.832 E9.85072
G1 X117.673 Y95.82 E9.88491
G1 X118.342 Y95.832 E9.90717
G1 X119.1 Y95.868 E9.93241
G1 X119.732 Y95.925 E9.95351
G1 X120.453 Y96.013 E9.97767
G1 X121.146 Y96.118 E10.00098
G1 X122.084 Y96.3 E10.03276
G1 X122.964 Y96.509 E10.06285
G1 X123.942 Y96.787 E10.09666
G1 X124.549 Y96.987 E10.11792
G1 X125.21 Y97.228 E10.14132
G1 X125.909 Y97.507 E10.16635
G1 X126.322 Y97.688 E10.18135
G1 X127.014 Y98.01 E10.20674
G1 X127.602 Y98.307 E10.22865
G1 X128.151 Y98.607 E10.24945
G1 X128.688 Y98.922 E10.27016
G1 X129.38 Y99.357 E10.29735
G1 X130.028 Y99.794 E10.32334
G1 X130.469 Y100.117 E10.34152
G1 X131.119 Y100.621 E10.36888
G1 X131.689 Y101.097 E10.39358
G1 X132.314 Y101.659 E10.42153
G1 X132.872 Y102.201 E10.44741
G1 X133.48 Y102.838 E10.4767
G1 X133.975 Y103.396 E10.50151
G1 X134.512 Y104.048 E10.5296
G1 X134.928 Y104.588 E10.55227
G1 X135.278 Y105.076 E10.57225
G1 X135.666 Y105.649 E10.59526
G1 X135.937 Y106.081 E10.61222
G1 X136.359 Y106.791 E10.63969
G1 X136.709 Y107.43 E10.66393
G1 X137.065 Y108.14 E10.69034
G1 X137.382 Y108.835 E10.71575
G1 X137.721 Y109.66 E10.74542
G1 X137.954 Y110.286 E10.76763
G1 X138.143 Y110.848 E10.78735
G1 X138.329 Y111.448 E10.80825
G1 X138.466 Y111.952 E10.82562
G1 X138.66 Y112.743 E10.85271
G1 X138.797 Y113.392 E10.87477
G1 X138.905 Y114.001 E10.89534
G1 X138.998 Y114.613 E10.91593
G1 X139.063 Y115.173 E10.93468
G1 X139.138 Y116.037 E10.96352
G1 X139.175 Y116.775 E10.9881
G1 X139.187 Y117.626 E11.01641
G1 X139.17 Y118.378 E11.04143
G1 X139.119 Y119.232 E11.06988
G1 X139.043 Y120.003 E11.09565
G1 X138.927 Y120.853 E11.12418
G1 X138.822 Y121.478 E11.14526
G1 X138.71 Y122.037 E11.16422
G1 X138.546 Y122.749 E11.18852
G1 X138.425 Y123.2 E11.20405
G1 X138.194 Y123.99 E11.23143
G1 X137.951 Y124.717 E11.25693
G1 X137.646 Y125.528 E11.28574
G1 X137.384 Y126.16 E11.3085
G1 X136.976 Y127.029 E11.34043
G1 X136.517 Y127.92 E11.37376
G1 X136.214 Y128.466 E11.39453
G1 X135.87 Y129.031 E11.41653
G1 X135.579 Y129.482 E11.43439
G1 X135.191 Y130.049 E11.45724
G1 X134.889 Y130.461 E11.47423
G1 X134.386 Y131.111 E11.50156
G1 X133.896 Y131.698 E11.527
G1 X133.321 Y132.336 E11.55556
G1 X132.781 Y132.891 E11.58132
G1 X132.143 Y133.499 E11.61063
G1 X131.573 Y134.003 E11.63594
G1 X130.929 Y134.531 E11.66364
G1 X130.394 Y134.941 E11.68605
G1 X129.896 Y135.297 E11.70641
G1 X129.351 Y135.666 E11.7283
G1 X128.926 Y135.933 E11.745
G1 X128.224 Y136.351 E11.77217
G1 X127.646 Y136.67 E11.79413
G1 X127.139 Y136.929 E11.81307
G1 X126.555 Y137.21 E11.83462
G1 X125.659 Y137.596 E11.86707
G1 X124.729 Y137.949 E11.90016
G1 X124.134 Y138.149 E11.92103
G1 X123.471 Y138.349 E11.94407
G1 X123.028 Y138.472 E11.95936
G1 X122.135 Y138.689 E11.98992
G1 X121.321 Y138.848 E12.01751
G1 X120.59 Y138.967 E12.04214
G1 X119.86 Y139.059 E12.06661
G1 X119.078 Y139.129 E12.09273
G1 X118.355 Y139.168 E12.11681
G1 X117.327 Y139.18 E12.151
G1 X116.659 Y139.168 E12.17323
G1 X115.902 Y139.132 E12.19843
G1 X115.267 Y139.075 E12.21964
G1 X114.547 Y138.987 E12.24376
G1 X113.86 Y138.883 E12.26687
G1 X112.916 Y138.7 E12.29885
G1 X112.481 Y138.602 E12.31369
G1 X111.606 Y138.375 E12.34375
G1 X111.06 Y138.214 E12.36268
G1 X110.416 Y138 E12.38526
G1 X109.635 Y137.712 E12.41294
G1 X109.004 Y137.455 E12.4356
G1 X108.348 Y137.162 E12.4595
G1 X107.631 Y136.815 E12.48599
G1 X107.167 Y136.569 E12.50346
G1 X106.515 Y136.201 E12.52836
G1 X105.993 Y135.885 E12.54866
G1 X105.197 Y135.363 E12.58032
G1 X104.545 Y134.892 E12.60707
G1 X103.894 Y134.389 E12.63443
G1 X103.297 Y133.891 E12.66029
G1 X102.653 Y133.31 E12.68914
G1 X102.1 Y132.772 E12.7148
G1 X101.499 Y132.141 E12.74378
