;FLAVOR:Marlin
;TIME:1807
;Filament used: 1.06652m
;Layer height: 0.2
;MINX:96.515
;MINY:96.509
;MINZ:0.2
;MAXX:138.491
;MAXY:138.488
;MAXZ:22
;TARGET_MACHINE.NAME:Creality Ender-3
;Generated with Cura_SteamEngine 5.6.0
M140 S50
M105
M190 S50
M104 S200
M105
M109 S200
M82 ;absolute extrusion mode
; Ender 3 Custom Start G-code
G92 E0 ; Reset Extruder
G28 ; Home all axes
G1 Z2.0 F3000 ; Move Z Axis up little to prevent scratching of Heat Bed
G1 X0.1 Y20 Z0.3 F5000.0 ; Move to start position
G1 X0.1 Y200.0 Z0.3 F1500.0 E15 ; Draw the first line
G1 X0.4 Y200.0 Z0.3 F5000.0 ; Move to side a little
G1 X0.4 Y20 Z0.3 F1500.0 E30 ; Draw the second line
G92 E0 ; Reset Extruder
G1 Z2.0 F3000 ; Move Z Axis up little to prevent scratching of Heat Bed
G1 X5 Y20 Z0.3 F5000.0 ; Move over to prevent blob squish
G92 E0
G92 E0
G1 F2700 E-5
;LAYER_COUNT:110
;LAYER:0
M107
G0 F6000 X102.843 Y102.482 Z0.2
;TYPE:SKIRT
G1 F2700 E0
G1 F1200 X103.405 Y101.953 E0.02567
G1 X103.975 Y101.454 E0.05087
G1 X104.478 Y101.04 E0.07253
G1 X104.921 Y100.699 E0.09113
G1 X105.488 Y100.292 E0.11434
G1 X106.103 Y99.879 E0.13898
G1 X106.652 Y99.531 E0.1606
G1 X107.661 Y98.963 E0.19911
G1 X108.234 Y98.67 E0.22052
G1 X108.795 Y98.404 E0.24117
G1 X109.261 Y98.196 E0.25814
G1 X109.909 Y97.935 E0.28138
G1 X110.536 Y97.702 E0.30362
G1 X111.265 Y97.462 E0.32915
G1 X112.021 Y97.242 E0.35534
G1 X112.744 Y97.059 E0.38014
G1 X113.465 Y96.903 E0.40468
G1 X114.134 Y96.782 E0.42729
G1 X114.63 Y96.709 E0.44397
G1 X115.249 Y96.635 E0.4647
G1 X115.996 Y96.568 E0.48965
G1 X116.843 Y96.519 E0.51786
G1 X117.395 Y96.509 E0.53623
G1 X117.828 Y96.512 E0.55063
G1 X118.527 Y96.536 E0.57389
G1 X119.536 Y96.612 E0.60755
G1 X120.25 Y96.692 E0.63144
G1 X120.978 Y96.802 E0.65593
G1 X121.756 Y96.948 E0.68226
G1 X122.526 Y97.122 E0.70851
G1 X123.207 Y97.302 E0.73194
G1 X123.852 Y97.494 E0.75433
G1 X124.53 Y97.72 E0.7781
G1 X125.043 Y97.912 E0.79631
G1 X125.854 Y98.245 E0.82547
G1 X126.465 Y98.528 E0.84787
G1 X127.391 Y98.994 E0.88235
G1 X128.004 Y99.328 E0.90557
G1 X128.759 Y99.786 E0.93494
G1 X129.364 Y100.184 E0.95902
G1 X130.021 Y100.653 E0.98587
G1 X130.634 Y101.128 E1.01166
G1 X131.151 Y101.555 E1.03397
G1 X131.574 Y101.927 E1.0527
G1 X132.021 Y102.345 E1.07306
G1 X132.498 Y102.817 E1.09538
G1 X132.946 Y103.283 E1.11688
G1 X133.332 Y103.719 E1.13624
G1 X133.827 Y104.307 E1.16181
G1 X134.284 Y104.894 E1.18655
G1 X134.734 Y105.519 E1.21217
G1 X135.145 Y106.131 E1.23669
G1 X135.536 Y106.763 E1.2614
G1 X135.914 Y107.425 E1.28676
G1 X136.268 Y108.098 E1.31205
G1 X136.607 Y108.808 E1.33822
G1 X136.901 Y109.488 E1.36286
G1 X137.173 Y110.18 E1.38759
G1 X137.426 Y110.896 E1.41285
G1 X137.66 Y111.651 E1.43914
G1 X137.854 Y112.371 E1.46394
G1 X138.024 Y113.099 E1.4888
G1 X138.171 Y113.843 E1.51403
G1 X138.293 Y114.615 E1.54002
G1 X138.381 Y115.335 E1.56415
G1 X138.443 Y116.062 E1.58842
G1 X138.481 Y116.837 E1.61422
G1 X138.491 Y117.618 E1.6402
G1 X138.472 Y118.381 E1.66559
G1 X138.426 Y119.152 E1.69128
G1 X138.354 Y119.906 E1.71647
G1 X138.261 Y120.613 E1.74019
G1 X138.137 Y121.351 E1.76508
G1 X137.981 Y122.107 E1.79075
G1 X137.801 Y122.841 E1.81589
G1 X137.588 Y123.593 E1.84188
G1 X137.353 Y124.317 E1.8672
G1 X137.09 Y125.039 E1.89276
G1 X136.803 Y125.745 E1.9181
G1 X136.491 Y126.442 E1.9435
G1 X136.168 Y127.098 E1.96782
G1 X135.799 Y127.784 E1.99373
G1 X135.413 Y128.444 E2.01916
G1 X135.002 Y129.09 E2.04463
G1 X134.602 Y129.671 E2.06809
G1 X134.165 Y130.262 E2.09254
G1 X133.684 Y130.868 E2.11827
G1 X133.159 Y131.479 E2.14506
G1 X132.639 Y132.04 E2.1705
G1 X132.116 Y132.566 E2.19517
G1 X131.572 Y133.076 E2.21998
G1 X131.003 Y133.572 E2.24508
G1 X130.399 Y134.059 E2.27089
G1 X129.788 Y134.515 E2.29625
G1 X129.17 Y134.945 E2.32129
G1 X128.605 Y135.312 E2.34369
G1 X128.175 Y135.573 E2.36042
G1 X127.435 Y135.988 E2.38864
G1 X126.821 Y136.299 E2.41154
G1 X125.922 Y136.719 E2.44454
G1 X125.096 Y137.068 E2.47436
G1 X124.49 Y137.292 E2.49585
G1 X123.82 Y137.517 E2.51936
G1 X123.058 Y137.74 E2.54577
G1 X122.286 Y137.935 E2.57225
G1 X121.521 Y138.099 E2.59827
G1 X120.781 Y138.229 E2.62326
G1 X120.04 Y138.333 E2.64815
G1 X119.299 Y138.41 E2.67293
G1 X118.629 Y138.459 E2.69527
G1 X118.098 Y138.48 E2.71295
G1 X117.518 Y138.488 E2.73224
G1 X116.718 Y138.473 E2.75885
G1 X116.267 Y138.452 E2.77387
G1 X115.641 Y138.405 E2.79475
G1 X115.009 Y138.338 E2.81589
G1 X114.297 Y138.238 E2.8398
G1 X113.264 Y138.05 E2.87472
G1 X112.552 Y137.892 E2.89898
G1 X111.917 Y137.731 E2.92077
G1 X111.484 Y137.606 E2.93576
G1 X110.936 Y137.433 E2.95487
G1 X110.294 Y137.211 E2.97746
G1 X109.682 Y136.977 E2.99926
G1 X109.221 Y136.786 E3.01585
G1 X108.658 Y136.532 E3.0364
G1 X107.998 Y136.21 E3.06082
G1 X107.398 Y135.898 E3.08331
G1 X106.915 Y135.621 E3.10183
G1 X106.279 Y135.235 E3.12658
G1 X105.613 Y134.795 E3.15313
G1 X104.985 Y134.346 E3.1788
G1 X104.38 Y133.879 E3.20422
G1 X103.814 Y133.41 E3.22867
G1 X103.325 Y132.977 E3.25039
G1 X102.644 Y132.322 E3.28182
G1 X102.347 Y132.018 E3.29596
G1 X101.869 Y131.492 E3.3196
G1 X101.152 Y130.651 E3.35635
G1 X100.545 Y129.865 E3.38938
G1 X100.114 Y129.251 E3.41434
G1 X99.722 Y128.656 E3.43803
G1 X99.242 Y127.849 E3.46926
G1 X98.868 Y127.159 E3.49537
G1 X98.538 Y126.476 E3.5206
G1 X98.089 Y125.458 E3.5576
G1 X97.777 Y124.68 E3.58548
G1 X97.572 Y124.075 E3.60673
G1 X97.342 Y123.33 E3.63266
G1 X97.155 Y122.64 E3.65644
G1 X96.99 Y121.939 E3.68039
G1 X96.84 Y121.181 E3.70609
G1 X96.723 Y120.449 E3.73075
G1 X96.632 Y119.705 E3.75568
G1 X96.566 Y118.954 E3.78075
G1 X96.525 Y118.161 E3.80716
G1 X96.515 Y117.397 E3.83257
G1 X96.534 Y116.627 E3.85819
G1 X96.579 Y115.872 E3.88335
G1 X96.652 Y115.098 E3.90921
G1 X96.755 Y114.324 E3.93518
G1 X96.881 Y113.582 E3.96021
G1 X97.002 Y112.988 E3.98037
G1 X97.193 Y112.205 E4.00718
G1 X97.429 Y111.378 E4.03578
G1 X97.655 Y110.681 E4.06015
G1 X97.91 Y109.977 E4.08506
G1 X98.246 Y109.154 E4.11462
G1 X98.582 Y108.423 E4.14138
G1 X98.888 Y107.808 E4.16423
G1 X99.218 Y107.198 E4.1873
G1 X99.599 Y106.548 E4.21235
G1 X100.009 Y105.903 E4.23778
G1 X100.457 Y105.252 E4.26406
G1 X100.884 Y104.681 E4.28777
G1 X101.35 Y104.1 E4.31255
G1 X101.849 Y103.521 E4.33797
G1 X102.343 Y102.987 E4.36216
G1 X102.843 Y102.482 E4.3858
G0 F6000 X103.117 Y102.773
G1 F1200 X103.668 Y102.254 E4.41098
G1 X104.229 Y101.763 E4.43577
G1 X104.723 Y101.357 E4.45704
G1 X105.154 Y101.024 E4.47515
G1 X105.711 Y100.624 E4.49796
G1 X106.317 Y100.217 E4.52224
G1 X106.853 Y99.877 E4.54335
G1 X107.284 Y99.627 E4.55993
G1 X107.843 Y99.319 E4.58115
G1 X108.406 Y99.031 E4.60219
G1 X108.958 Y98.769 E4.62251
G1 X109.411 Y98.567 E4.63901
G1 X110.048 Y98.31 E4.66185
G1 X110.661 Y98.082 E4.68361
G1 X111.377 Y97.846 E4.70868
G1 X112.119 Y97.63 E4.73438
G1 X112.829 Y97.45 E4.75875
G1 X113.536 Y97.297 E4.7828
G1 X114.193 Y97.178 E4.80501
G1 X114.678 Y97.106 E4.82132
G1 X115.285 Y97.033 E4.84165
G1 X116.019 Y96.967 E4.86617
G1 X116.85 Y96.919 E4.89385
G1 X117.392 Y96.909 E4.91188
G1 X117.815 Y96.912 E4.92595
G1 X118.497 Y96.935 E4.94865
G1 X119.491 Y97.009 E4.9818
G1 X120.191 Y97.088 E5.00523
G1 X120.904 Y97.195 E5.02921
G1 X121.668 Y97.338 E5.05506
G1 X122.424 Y97.509 E5.08084
G1 X123.093 Y97.685 E5.10385
G1 X123.725 Y97.873 E5.12578
G1 X124.39 Y98.095 E5.1491
G1 X124.891 Y98.282 E5.16688
G1 X125.686 Y98.608 E5.19546
G1 X126.285 Y98.885 E5.21741
G1 X127.2 Y99.345 E5.25147
G1 X127.797 Y99.67 E5.27408
G1 X128.539 Y100.12 E5.30295
G1 X129.132 Y100.51 E5.32655
G1 X129.776 Y100.969 E5.35286
G1 X130.379 Y101.436 E5.37822
G1 X130.887 Y101.856 E5.40015
G1 X131.301 Y102.219 E5.41846
G1 X131.74 Y102.629 E5.43844
G1 X132.21 Y103.094 E5.46043
G1 X132.647 Y103.548 E5.48139
G1 X133.026 Y103.976 E5.5004
G1 X133.511 Y104.553 E5.52547
G1 X133.968 Y105.14 E5.55021
G1 X134.402 Y105.742 E5.5749
G1 X134.805 Y106.342 E5.59894
G1 X135.189 Y106.962 E5.62319
G1 X135.56 Y107.611 E5.64806
G1 X135.907 Y108.271 E5.67286
G1 X136.24 Y108.967 E5.69852
G1 X136.529 Y109.634 E5.7227
G1 X136.796 Y110.313 E5.74696
G1 X137.044 Y111.015 E5.77173
G1 X137.274 Y111.755 E5.7975
G1 X137.465 Y112.462 E5.82186
G1 X137.632 Y113.176 E5.84625
G1 X137.776 Y113.906 E5.871
G1 X137.896 Y114.663 E5.89649
G1 X137.982 Y115.369 E5.92014
G1 X138.043 Y116.082 E5.94394
G1 X138.081 Y116.842 E5.96925
G1 X138.091 Y117.608 E5.99473
G1 X138.073 Y118.357 E6.01965
G1 X138.028 Y119.114 E6.04487
G1 X137.957 Y119.854 E6.0696
G1 X137.864 Y120.561 E6.09332
G1 X137.745 Y121.27 E6.11723
G1 X137.592 Y122.012 E6.14243
G1 X137.416 Y122.732 E6.16708
G1 X137.207 Y123.47 E6.19259
G1 X136.977 Y124.18 E6.21741
G1 X136.719 Y124.888 E6.24248
G1 X136.432 Y125.594 E6.26782
G1 X136.132 Y126.266 E6.2923
G1 X135.816 Y126.909 E6.31613
G1 X135.454 Y127.582 E6.34155
G1 X135.076 Y128.229 E6.36647
G1 X134.672 Y128.863 E6.39147
G1 X134.28 Y129.433 E6.41448
G1 X133.852 Y130.013 E6.43846
G1 X133.38 Y130.607 E6.46369
G1 X132.865 Y131.207 E6.48999
G1 X132.355 Y131.758 E6.51496
G1 X131.842 Y132.274 E6.53916
G1 X131.309 Y132.774 E6.56347
G1 X130.74 Y133.27 E6.58858
G1 X130.159 Y133.739 E6.61341
G1 X129.56 Y134.187 E6.63829
G1 X128.952 Y134.61 E6.66292
G1 X128.398 Y134.97 E6.6849
G1 X127.979 Y135.224 E6.7012
G1 X127.254 Y135.631 E6.72885
G1 X126.652 Y135.937 E6.75131
G1 X125.766 Y136.351 E6.78384
G1 X124.957 Y136.693 E6.81305
G1 X124.363 Y136.913 E6.83412
G1 X123.708 Y137.133 E6.8571
G1 X122.96 Y137.352 E6.88302
G1 X122.202 Y137.544 E6.90903
G1 X121.452 Y137.705 E6.93454
G1 X120.725 Y137.833 E6.95909
G1 X119.999 Y137.935 E6.98348
G1 X119.27 Y138.011 E7.00786
G1 X118.613 Y138.059 E7.02977
G1 X118.092 Y138.08 E7.04711
G1 X117.526 Y138.088 E7.06594
G1 X116.736 Y138.073 E7.09222
G1 X116.297 Y138.053 E7.10683
G1 X115.683 Y138.007 E7.12731
G1 X115.064 Y137.942 E7.14801
G1 X114.369 Y137.845 E7.17135
G1 X113.35 Y137.659 E7.20581
G1 X112.65 Y137.504 E7.22965
G1 X112.027 Y137.346 E7.25103
G1 X111.605 Y137.225 E7.26563
G1 X111.067 Y137.055 E7.2844
G1 X110.436 Y136.837 E7.3066
G1 X109.835 Y136.608 E7.32799
G1 X109.385 Y136.421 E7.3442
G1 X108.833 Y136.172 E7.36434
G1 X108.182 Y135.855 E7.38842
G1 X107.597 Y135.551 E7.41035
G1 X107.122 Y135.279 E7.42856
G1 X106.499 Y134.901 E7.45279
G1 X105.846 Y134.47 E7.47882
G1 X105.229 Y134.029 E7.50404
G1 X104.635 Y133.571 E7.52899
G1 X104.079 Y133.11 E7.55301
G1 X103.602 Y132.688 E7.57419
G1 X102.93 Y132.043 E7.60517
G1 X102.643 Y131.749 E7.61884
G1 X102.173 Y131.233 E7.64205
G1 X101.468 Y130.406 E7.6782
G1 X100.872 Y129.635 E7.71061
G1 X100.448 Y129.031 E7.73515
G1 X100.066 Y128.452 E7.75823
G1 X99.594 Y127.658 E7.78895
G1 X99.22 Y126.968 E7.81505
G1 X98.904 Y126.314 E7.83921
G1 X98.46 Y125.309 E7.87575
G1 X98.156 Y124.551 E7.90292
G1 X97.954 Y123.957 E7.92378
G1 X97.728 Y123.225 E7.94926
G1 X97.544 Y122.548 E7.9726
G1 X97.382 Y121.861 E7.99608
G1 X97.235 Y121.118 E8.02127
G1 X97.12 Y120.4 E8.04545
G1 X97.03 Y119.67 E8.06992
G1 X96.965 Y118.933 E8.09452
G1 X96.925 Y118.156 E8.1204
G1 X96.915 Y117.407 E8.14531
G1 X96.933 Y116.651 E8.17047
G1 X96.977 Y115.91 E8.19516
G1 X97.049 Y115.151 E8.22051
G1 X97.152 Y114.377 E8.24648
G1 X97.273 Y113.662 E8.2706
G1 X97.391 Y113.083 E8.29026
G1 X97.578 Y112.314 E8.31658
G1 X97.809 Y111.501 E8.34469
G1 X98.031 Y110.817 E8.36861
G1 X98.28 Y110.128 E8.39297
G1 X98.609 Y109.321 E8.42196
G1 X98.94 Y108.601 E8.44832
G1 X99.24 Y107.998 E8.47072
G1 X99.563 Y107.4 E8.49332
G1 X99.937 Y106.762 E8.51792
G1 X100.338 Y106.13 E8.54281
G1 X100.778 Y105.491 E8.56862
G1 X101.196 Y104.931 E8.59186
G1 X101.653 Y104.361 E8.61616
G1 X102.143 Y103.792 E8.64114
G1 X102.627 Y103.268 E8.66486
G1 X103.117 Y102.773 E8.68803
G0 F6000 X103.391 Y103.064
G1 F1200 X103.931 Y102.555 E8.71271
G1 X104.483 Y102.072 E8.7371
G1 X104.967 Y101.674 E8.75795
G1 X105.388 Y101.349 E8.77564
G1 X105.934 Y100.956 E8.79801
G1 X106.531 Y100.555 E8.82193
G1 X107.054 Y100.223 E8.84253
G1 X107.477 Y99.977 E8.85881
G1 X108.025 Y99.675 E8.87962
G1 X108.577 Y99.392 E8.90025
G1 X109.121 Y99.134 E8.92028
G1 X109.561 Y98.938 E8.9363
G1 X110.187 Y98.685 E8.95876
G1 X110.787 Y98.462 E8.98005
G1 X111.489 Y98.23 E9.00464
G1 X112.217 Y98.018 E9.02986
G1 X112.914 Y97.841 E9.05377
G1 X113.608 Y97.691 E9.07739
G1 X114.252 Y97.574 E9.09916
G1 X114.726 Y97.503 E9.1151
G1 X115.321 Y97.431 E9.13503
G1 X116.042 Y97.366 E9.15911
G1 X116.858 Y97.319 E9.1863
G1 X117.389 Y97.309 E9.20396
G1 X117.802 Y97.312 E9.2177
G1 X118.468 Y97.334 E9.23986
G1 X119.446 Y97.406 E9.27248
G1 X120.132 Y97.484 E9.29544
G1 X120.831 Y97.588 E9.31895
G1 X121.58 Y97.728 E9.34429
G1 X122.323 Y97.896 E9.36963
G1 X122.979 Y98.068 E9.39218
G1 X123.598 Y98.252 E9.41366
G1 X124.25 Y98.47 E9.43653
G1 X124.739 Y98.652 E9.45388
G1 X125.518 Y98.971 E9.48188
G1 X126.106 Y99.243 E9.50343
G1 X127.009 Y99.696 E9.53703
G1 X127.59 Y100.012 E9.55902
G1 X128.319 Y100.454 E9.58738
G1 X128.9 Y100.836 E9.61051
G1 X129.531 Y101.286 E9.63628
G1 X130.124 Y101.744 E9.66121
G1 X130.623 Y102.156 E9.68273
G1 X131.028 Y102.512 E9.70066
G1 X131.459 Y102.914 E9.72027
G1 X131.922 Y103.371 E9.7419
G1 X132.348 Y103.814 E9.76234
G1 X132.72 Y104.233 E9.78098
G1 X133.195 Y104.799 E9.80556
G1 X133.652 Y105.386 E9.8303
G1 X134.07 Y105.965 E9.85405
G1 X134.465 Y106.553 E9.87761
G1 X134.842 Y107.16 E9.90138
G1 X135.206 Y107.797 E9.92578
G1 X135.546 Y108.444 E9.95009
G1 X135.873 Y109.126 E9.97524
G1 X136.157 Y109.78 E9.99896
G1 X136.419 Y110.446 E10.02276
G1 X136.662 Y111.134 E10.04703
G1 X136.888 Y111.86 E10.07232
G1 X137.076 Y112.553 E10.0962
G1 X137.24 Y113.253 E10.12012
G1 X137.381 Y113.969 E10.14439
G1 X137.499 Y114.711 E10.16938
G1 X137.583 Y115.403 E10.19256
G1 X137.644 Y116.116 E10.21636
G1 X137.681 Y116.847 E10.24071
G1 X137.691 Y117.599 E10.26572
G1 X137.674 Y118.333 E10.29014
G1 X137.63 Y119.076 E10.3149
G1 X137.56 Y119.802 E10.33915
G1 X137.467 Y120.509 E10.36287
G1 X137.353 Y121.189 E10.3858
G1 X137.203 Y121.917 E10.41053
G1 X137.031 Y122.623 E10.4347
G1 X136.826 Y123.347 E10.45972
G1 X136.601 Y124.043 E10.48405
G1 X136.348 Y124.738 E10.50865
G1 X136.067 Y125.431 E10.53352
G1 X135.773 Y126.09 E10.55752
G1 X135.464 Y126.72 E10.58086
G1 X135.109 Y127.38 E10.60579
G1 X134.738 Y128.014 E10.63022
G1 X134.342 Y128.637 E10.65477
G1 X133.958 Y129.196 E10.67733
G1 X133.539 Y129.764 E10.7008
G1 X133.076 Y130.347 E10.72557
G1 X132.572 Y130.935 E10.75132
G1 X132.071 Y131.476 E10.77585
G1 X131.568 Y131.982 E10.79958
G1 X131.046 Y132.472 E10.82339
G1 X130.477 Y132.968 E10.8485
G1 X129.919 Y133.419 E10.87236
G1 X129.332 Y133.859 E10.89676
G1 X128.734 Y134.275 E10.92099
G1 X128.191 Y134.628 E10.94253
G1 X127.783 Y134.875 E10.95839
G1 X127.072 Y135.275 E10.98553
G1 X126.483 Y135.575 E11.00751
G1 X125.61 Y135.983 E11.03956
G1 X124.818 Y136.318 E11.06816
G1 X124.236 Y136.534 E11.08881
G1 X123.595 Y136.749 E11.1113
G1 X122.862 Y136.964 E11.13671
G1 X122.118 Y137.153 E11.16224
G1 X121.382 Y137.311 E11.18727
G1 X120.669 Y137.437 E11.21136
G1 X119.957 Y137.537 E11.23527
G1 X119.241 Y137.612 E11.25921
G1 X118.597 Y137.659 E11.28069
G1 X118.086 Y137.68 E11.2977
G1 X117.534 Y137.688 E11.31606
G1 X116.754 Y137.673 E11.34201
G1 X116.327 Y137.654 E11.35623
G1 X115.724 Y137.609 E11.37634
G1 X115.119 Y137.546 E11.39657
G1 X114.441 Y137.452 E11.41934
G1 X113.436 Y137.268 E11.45332
G1 X112.748 Y137.116 E11.47675
G1 X112.137 Y136.961 E11.49772
G1 X111.715 Y136.84 E11.51232
G1 X111.198 Y136.677 E11.53035
G1 X110.578 Y136.463 E11.55216
G1 X109.989 Y136.239 E11.57312
G1 X109.549 Y136.056 E11.58897
G1 X109.008 Y135.812 E11.60871
G1 X108.366 Y135.5 E11.63245
G1 X107.796 Y135.204 E11.65382
G1 X107.329 Y134.937 E11.67171
G1 X106.719 Y134.567 E11.69544
G1 X106.079 Y134.145 E11.72093
G1 X105.473 Y133.712 E11.74571
G1 X104.89 Y133.263 E11.77018
G1 X104.344 Y132.81 E11.79378
G1 X103.879 Y132.399 E11.81442
G1 X103.216 Y131.764 E11.84495
G1 X102.938 Y131.479 E11.85819
G1 X102.477 Y130.974 E11.88094
G1 X101.784 Y130.161 E11.91647
G1 X101.199 Y129.405 E11.94826
G1 X100.782 Y128.811 E11.9724
G1 X100.41 Y128.247 E11.99487
G1 X99.946 Y127.467 E12.02506
G1 X99.572 Y126.777 E12.05116
G1 X99.27 Y126.152 E12.07425
G1 X98.831 Y125.16 E12.11033
G1 X98.535 Y124.422 E12.13678
G1 X98.336 Y123.839 E12.15727
